packages/bezier-icons/icons/bus.svg

<svg width="24" height="24" viewBox="0 0 24 24" fill="none" xmlns="http://www.w3.org/2000/svg">
<path d="M6 14.5C6 13.6716 6.67157 13 7.5 13C8.32843 13 9 13.6716 9 14.5C9 15.3284 8.32843 16 7.5 16C6.67157 16 6 15.3284 6 14.5Z" fill="#313234"/>
<path d="M16.5 13C15.6716 13 15 13.6716 15 14.5C15 15.3284 15.6716 16 16.5 16C17.3284 16 18 15.3284 18 14.5C18 13.6716 17.3284 13 16.5 13Z" fill="#313234"/>
<path fill-rule="evenodd" clip-rule="evenodd" d="M17 2C19.2091 2 21 3.79086 21 6V21C21 21.5523 20.5523 22 20 22H18C17.4477 22 17 21.5523 17 21V19H7V21C7 21.5523 6.55228 22 6 22H4C3.44772 22 3 21.5523 3 21V6C3 3.79086 4.79086 2 7 2H17ZM19 6V10H5V6L5.00549 5.85074C5.08183 4.81588 5.94564 4 7 4H17L17.1493 4.00549C18.1841 4.08183 19 4.94564 19 6ZM19 12H5V17H19V12Z" fill="#313234"/>
</svg>

<svg xmlns="http://www.w3.org/2000/svg" width="24" height="24" fill="none" viewBox="0 0 24 24"><path fill="#313234" d="M6 14.5a1.5 1.5 0 1 1 3 0 1.5 1.5 0 0 1-3 0M16.5 13a1.5 1.5 0 1 0 0 3 1.5 1.5 0 0 0 0-3"/><path fill="#313234" fill-rule="evenodd" d="M17 2a4 4 0 0 1 4 4v15a1 1 0 0 1-1 1h-2a1 1 0 0 1-1-1v-2H7v2a1 1 0 0 1-1 1H4a1 1 0 0 1-1-1V6a4 4 0 0 1 4-4zm2 4v4H5V6l.005-.15A2 2 0 0 1 7 4h10l.15.005A2 2 0 0 1 19 6m0 6H5v5h14z" clip-rule="evenodd"/></svg>
